X: 7235
T: Clancy's
R: jig
M: 6/8
K: Dmajor
BEE B2d|BEE BAF|BE2 B2d|BAF AFD|
BE2 B2d|BE2 BAF|DFA ded|BAF AFD|
BE2 B2d|BE2BAF|BE2 B2d|BAF AFD|
BE2 BE2|BE2 BAF|DFA ded|BAF AFE||
DFA ded|BAB dAF|DFA ded|cAG FEF|
DFA ded|e3 efg|ef2 ede|fdB AFA|
DFA d3|AB2 dAF|DFA ded|cAG FEF|
DFA dB/c/d|e3 efg|ef2 ede|fdB AFA||

